icons/treasure-map-fill.svg

<svg viewBox="0 0 24 24" fill="currentColor" xmlns="http://www.w3.org/2000/svg">
    <path d="M2 5L9 2L15 5L21.303 2.2987C21.5569 2.18992 21.8508 2.30749 21.9596 2.56131C21.9862 2.62355 22 2.69056 22 2.75827V19L15 22L9 19L2.69696 21.7013C2.44314 21.8101 2.14921 21.6925 2.04043 21.4387C2.01375 21.3765 2 21.3094 2 21.2417V5ZM6 11V13H8V11H6ZM10 11V13H12V11H10ZM16 10.9393L14.7626 9.7019L13.7019 10.7626L14.9393 12L13.7019 13.2374L14.7626 14.2981L16 13.0607L17.2374 14.2981L18.2981 13.2374L17.0607 12L18.2981 10.7626L17.2374 9.7019L16 10.9393Z"/>
</svg>

<svg xmlns="http://www.w3.org/2000/svg" viewBox="0 0 24 24">
    <g>
        <path fill="none" d="M0 0h24v24H0z"/>
        <path d="M2 5l7-3 6 3 6.303-2.701a.5.5 0 0 1 .697.46V19l-7 3-6-3-6.303 2.701a.5.5 0 0 1-.697-.46V5zm4 6v2h2v-2H6zm4 0v2h2v-2h-2zm6-.06l-1.237-1.238-1.061 1.06L14.939 12l-1.237 1.237 1.06 1.061L16 13.061l1.237 1.237 1.061-1.06L17.061 12l1.237-1.237-1.06-1.061L16 10.939z"/>
    </g>
</svg>
